priv/static/svgs/icons_new/sport-e-n-b-a.svg

<svg width="32" height="32" viewBox="0 0 32 32" fill="none" xmlns="http://www.w3.org/2000/svg">
<path d="M24.9217 15.204C24.9217 15.4935 24.9217 15.783 24.9217 16.0726C24.9217 18.6783 23.9566 21.091 22.1229 22.9247C20.2892 24.7584 17.8765 25.7235 15.2708 25.7235C12.665 25.7235 10.2523 24.7584 8.41864 22.9247C6.58496 21.091 5.61987 18.6783 5.61987 16.0726C5.61987 15.9761 5.61987 15.8796 5.61987 15.783C5.71638 13.2738 6.68147 10.9576 8.41864 9.22043C10.1558 7.48326 12.472 6.51817 14.9812 6.42166C15.0778 6.42166 15.1743 6.42166 15.2708 6.42166C15.7289 6.42166 16.1812 6.4515 16.6253 6.51065M14.1127 6.71148C13.0272 8.43714 12.8772 9.48755 13.5336 10.6681C13.5336 10.6681 13.7266 11.0541 14.1127 11.2471C14.9302 11.876 15.8297 12.0541 16.7844 12.0752M16.2359 25.7235C12.472 23.7933 12.3755 21.5736 12.279 19.4504C12.279 18.0028 12.1825 16.5551 10.9279 15.3005C10.9279 15.3005 10.8314 15.204 10.7349 15.1075C10.6383 15.011 10.0593 14.6249 10.0593 14.6249C8.90118 13.9494 7.45354 14.0459 5.61987 15.011M22.4124 22.6352L8.80467 9.02741M7.08956 21.4294C7.77133 16.8517 10.5958 12.7611 14.9786 10.6184C15.5176 10.3372 16.0678 10.0955 16.6253 9.89183M20.4157 7.93487C20.4157 9.82806 21.5448 11.1474 23.3788 11.1474C24.3549 11.1474 25.3405 10.9599 26.2384 9.83754M20.4157 7.93487C20.4157 6.04168 21.5448 4.74365 23.3788 4.74365C25.2129 4.74365 26.3801 6.04168 26.3801 7.93487H20.4157Z" stroke="black" stroke-miterlimit="10" stroke-linecap="round" stroke-linejoin="round"/>
</svg>

<svg width="32" height="32" viewBox="0 0 32 32" fill="none" xmlns="http://www.w3.org/2000/svg">
  <symbol id="item" viewBox="0 0 32 32" stroke-width="1" fill="none">
    <path d="M24.922 15.204v.869c0 2.605-.965 5.018-2.8 6.852-1.833 1.833-4.245 2.799-6.851 2.799s-5.019-.966-6.852-2.8c-1.834-1.833-2.8-4.246-2.8-6.851v-.29c.097-2.51 1.062-4.825 2.8-6.563 1.737-1.737 4.053-2.702 6.562-2.798h.29c.458 0 .91.03 1.354.089m-2.512.2c-1.086 1.726-1.236 2.777-.58 3.957 0 0 .194.386.58.58.817.628 1.717.806 2.671.827m-.548 13.649c-3.764-1.93-3.86-4.15-3.957-6.274 0-1.447-.097-2.895-1.351-4.15l-.193-.193c-.097-.096-.676-.482-.676-.482-1.158-.676-2.605-.58-4.44.386m16.793 7.624L8.805 9.027M7.09 21.43c.681-4.577 3.506-8.668 7.889-10.81.539-.282 1.089-.524 1.646-.727m3.79-1.957c0 1.893 1.13 3.212 2.964 3.212.976 0 1.961-.187 2.86-1.31m-5.823-1.902c0-1.893 1.129-3.191 2.963-3.191s3.001 1.298 3.001 3.19h-5.964Z" stroke="currentColor" stroke-miterlimit="10" stroke-linecap="round" stroke-linejoin="round"/>
  </symbol>
</svg>
